X: 3
T: Mulhaire's
R: reel
M: 4/4
L: 1/8
K: Dmaj
AdAF DFAF | G2 BG DGBd | cAeA ceAc | dcde fdAG|
AdAF DFAF | GB ~B2 dB ~B2 | Ae ~e2 gece |1 ~e2 ce dBAG :|2 ~e2 ce defg ||
|:a2 (3fed ad ~d2 | adfd edBd | edef gfga | bee^d efgb |
a2 (3fed ad ~d2 | Adfd edBA | FA ~A2 GBdB |1 AFGE D4:|2 AFGE D2 FG ||


Tune 1473	Setting 1473

